X:1
T:Due pupille amabili
T:Due pupille amabili
T:KV 439
T:W. A. Mozart
C:W. A. Mozart
%%score [ 1 2 3 ]
L:1/8
Q:1/4=60
M:4/4
K:F
V:1 treble nm="Sopran"
V:2 treble nm="Alt"
V:3 bass nm="Bass"
V:1
"^Andante" c2 B A A2 A2 |{c} B3 A G2 z2 | A2 G2 F2 B2 | A4 G2 z2 | B2 A G (G2 A) B | %5
w: Du- e pu- pil- le~a|ma- bi- li,|m'han pie- ga- to~il|co- re|e se- pie- tà _ non|
 (c3 B) A2 (Ac) | (cB) (AG) (GA) (B=B) |{d} (c3 _B) A2 z F | F3 G G3 G | (A2 B2) c2 d2 | %10
w: chie- * do a _|quel- * le _ lu- * ci _|bel- * le per|quel- le, si per|quel- * le io|
 (dG) G2 (GA) (Bc) | B4 A2 A2 | (cB) (AG) (GA) (B=B) |{d} (c3 _B) A2 A2 | (c=B) (_BA) (GA) (B=B) | %15
w: mo- * ri- rò _ d'a- *|mo- re e|se _ pie- * tà _ non _|chie- * do a|quel- * le _ lu- * ci _|
 d4 c2 z F | F3 F G3 G | (A2 B2) c2 d2 | (dG) G2 (GA) (Bc) |{B} A4 z4 |!f! c4 B4 | A4 z4 | %22
w: bel- le per|quel- le, si per|quel- * le io|mo- * ri- rò _ d'a- *|mor,|mo- ri-|rò,|
!p! B4 E4 | F4 z4 |] %24
w: mo- ri-|rò.|
V:2
 A2 G F F2 F2 |{A} G3 F E2 z2 | F2 E2 F2 G2 | F4 E2 z2 | G2 F E (E2 F) G | (G3 G) F2 (FA) | %6
w: Du- e pu- pil- le~a-|ma- bi- li|m'han pie- ga- to~il|co- re|e se pie- tà _ non|chie- * do a _|
 (AG) (FE) (EF) (G^G) |{B} (A3 =G) F2 z F | F3 F E3 E | F4 F2 B2 | (BE) E2 (EF) (GA) | G4 F2 F2 | %12
w: quel- * le _ lu- * ci _|bel- * le per|quel- le, si per|quel- le io|mo- * ri- rò _ d'a- *|mo- re e|
 (AG) (FE) (EF) (G^G) |{B} (A3 =G) F2 F2 | (A^G) (=GF) (EF) (G^G) | B4 A2 z F | F3 F E3 E | %17
w: se _ pie- * tà _ non _|chie- * do a|quel- * le _ lu- * ci _|bel- le per|quel- le, si per|
 F4 F2 B2 | (BE) E2 (EF) (GA) |{G} F4 z4 |!f! A4 G4 | F4 z4 |!p! G4 B,4 | A,4 z4 |] %24
w: quel- le io|mo- * ri- rò _ d'a- *|mor,|mo- ri-|ro,|mo- ri-|rò.|
V:3
 F,2 F, F, F,2 F,2 | C,3 C, C,2 z2 | F,2 C,2 D,2 B,,2 | C,4 C,2 z2 | C,2 C, C, C,2 C,2 | %5
w: Du- e pu- pil- le~a-|ma- bi- li|m'han pie- ga- to~il|co- re|e se pie- tà non|
 F,4 F,2 F,2 | C,2 C,2 C,2 C,2 | F,4 F,2 z F, | F,3 F, C,3 C, | (F,2 G,2) A,2 B,2 | C2 C2 C,2 C,2 | %11
w: chie- do a|quel- le lu- ci|bel- le per|quel- le, si per|quel- * le io|mo- ri- rò d'a-|
 F,4 F,2 z2 | C,2 C, C, C,2 C,2 | F,4 F,2 F,2 | C,2 C,2 C,2 C,2 | F,4 F,2 z F, | F,3 F, C,3 C, | %17
w: mo- re|e se pie- tà non|chie- do a|quel- le lu- ci|bel- le per|quel- le, si per|
 (F,2 G,2) A,2 B,2 | C2 C2 C,2 C,2 | F,4 z4 |!f! C,4 ^C,4 | D,4 z4 |!p! B,,4 C,4 | F,4 z4 |] %24
w: quel- * le io|mo- ri- rò d'a-|mor,|mo- ri-|rò,|mo- ri-|rò.|

